X:21
T:O'Keefe's
Z: id:dc-slide-21
M:6/8
L:1/8
K:D Major
z|a2f g2e|f2d B2A|a2f g2e|f2d def|!
a2f g2e|f2d B2A|GAB dBA|G2E E2:|!
D|GAB d3|dBe dBA|GAB dBA|B2e e3|!
GAB d3|dBe dBA|GAB dBA|G2E E2:|!

